_site/h1-logo.svg

<?xml version="1.0" encoding="UTF-8"?>
<svg width="300px" height="87px" viewBox="0 0 300 87" version="1.1" xmlns="http://www.w3.org/2000/svg" xmlns:xlink="http://www.w3.org/1999/xlink">
    <!-- Generator: Sketch 53 (72520) - https://sketchapp.com -->
    <title>hishnbamnd</title>
    <desc>Created with Sketch.</desc>
    <g id="Cover-photos" stroke="none" stroke-width="1" fill="none" fill-rule="evenodd">
        <path d="M154.724683,9.15231193 L154.724683,1.67435586 C154.724683,0.749634652 155.470088,1.6986853e-16 156.389592,0 L161.384321,2.97425348e-16 C162.303825,6.5144889e-16 163.04923,0.749634652 163.04923,1.67435586 L163.04923,10.8029076 C163.04923,11.7067759 162.3165,12.4395058 161.412632,12.4395058 C161.239979,12.4395058 161.068415,12.4121861 160.904302,12.35856 L155.852951,10.7079643 C155.179957,10.4880545 154.724683,9.86032421 154.724683,9.15231193 Z M141.671053,11.4892795 L129.949809,15.377344 L129.949809,85.1702923 C129.949809,86.0741605 129.217079,86.8068905 128.313211,86.8068905 L123.446655,86.8068905 C122.542787,86.8068905 121.810057,86.0741605 121.810057,85.1702923 L121.810057,2.02069949 C121.810057,1.11683126 122.542787,0.384101285 123.446655,0.384101285 L128.313211,0.384101285 C129.217079,0.384101285 129.949809,1.11683126 129.949809,2.02069949 L129.949809,6.63981537 L147.658938,0.765503821 C147.825136,0.71037416 147.999105,0.682273401 148.174208,0.682273401 C149.078076,0.682273401 149.810806,1.41500338 149.810806,2.31887161 L149.810806,7.60782395 L149.810806,84.8378969 C149.810806,85.7417652 149.078076,86.4744951 148.174208,86.4744951 L143.307651,86.4744951 C142.403783,86.4744951 141.671053,85.7417652 141.671053,84.8378969 L141.671053,11.4892795 Z M258.945621,11.4892795 L247.224378,15.377344 L247.224378,85.1702923 C247.224378,86.0741605 246.491648,86.8068905 245.587779,86.8068905 L240.721223,86.8068905 C239.817355,86.8068905 239.084625,86.0741605 239.084625,85.1702923 L239.084625,2.02069949 C239.084625,1.11683126 239.817355,0.384101285 240.721223,0.384101285 L245.587779,0.384101285 C246.491648,0.384101285 247.224378,1.11683126 247.224378,2.02069949 L247.224378,6.63981537 L264.933507,0.765503821 C265.099705,0.71037416 265.273673,0.682273401 265.448776,0.682273401 C266.352644,0.682273401 267.085374,1.41500338 267.085374,2.31887161 L267.085374,7.60782395 L267.085374,84.8378969 C267.085374,85.7417652 266.352644,86.4744951 265.448776,86.4744951 L260.58222,86.4744951 C259.678351,86.4744951 258.945621,85.7417652 258.945621,84.8378969 L258.945621,11.4892795 Z M280.234765,11.6031915 L280.234765,75.5878003 L291.764486,71.7996717 L291.764486,15.3913201 L280.234765,11.6031915 Z M271.999251,7.6895856 L271.999251,2.43133484 C271.999251,1.51281225 272.736684,0.768202571 273.646354,0.768202571 C273.819427,0.768202571 273.991419,0.795746075 274.155998,0.849819291 L298.862542,8.96723777 C299.540848,9.19009774 300,9.82849964 300,10.5487533 L300,15.8070041 L300,71.3839877 L300,76.6422384 C300,77.3624921 299.540848,78.000894 298.862542,78.223754 L274.155998,86.3411725 C273.991419,86.3952457 273.819427,86.4227892 273.646354,86.4227892 C272.736684,86.4227892 271.999251,85.6781795 271.999251,84.7596569 L271.999251,79.5014062 L271.999251,7.6895856 Z M214.076851,33.814614 L225.935544,37.6345392 L225.935544,10.7925847 L214.076851,14.6125099 L214.076851,33.814614 Z M214.076851,42.4482807 L214.076851,85.1462968 C214.076851,86.0634174 213.339445,86.8068905 212.42981,86.8068905 L207.488688,86.8068905 C206.579052,86.8068905 205.841647,86.0634174 205.841647,85.1462968 L205.841647,13.3007538 C205.841647,12.7458303 205.729065,11.3554107 205.841647,10.3437286 L205.841647,9.88112079 C205.841647,9.16155232 206.301301,8.52385665 206.980123,8.30167187 L232.106004,0.0777243607 C232.263335,0.0262285462 232.427719,8.49241766e-14 232.593133,8.52651283e-14 C233.464425,8.62879834e-14 234.170748,0.712134465 234.170748,1.59059685 L234.170748,6.92711707 C234.170748,7.04978776 234.157391,7.17006863 234.131871,7.28631068 C234.157326,7.40232015 234.170748,7.5228894 234.170748,7.64661921 L234.170748,85.1462968 C234.170748,86.0634174 233.433343,86.8068905 232.523707,86.8068905 L227.582585,86.8068905 C226.672949,86.8068905 225.935544,86.0634174 225.935544,85.1462968 L225.935544,46.3297473 L214.076851,42.4482807 Z M172.876984,6.95975958 L172.876984,1.59206514 C172.876984,0.718467345 173.585175,0.0102764079 174.458773,0.0102764079 C174.627889,0.0102764079 174.79591,0.0373966233 174.956438,0.0906040813 L199.756044,8.31052542 C200.42568,8.53247878 200.877733,9.15855119 200.877733,9.86401257 L200.877733,11.4457687 L200.877733,36.7630216 L200.877733,38.5815852 C200.877733,39.3018179 200.423406,39.9401022 199.752453,40.1624921 L190.553876,43.2113946 L199.752453,46.2602971 C200.423406,46.4826869 200.877733,47.1209713 200.877733,47.841204 L200.877733,49.5586282 L200.877733,74.8804351 L200.877733,76.5325471 C200.877733,77.2527798 200.423406,77.8910641 199.752453,78.113454 L174.917796,86.3449931 C174.762289,86.3965364 174.59981,86.4227892 174.436314,86.4227892 C173.57512,86.4227892 172.876984,85.7099973 172.876984,84.8307241 L172.876984,79.4892776 L172.876984,6.95975958 Z M181.016737,10.8025474 L181.016737,37.6692799 L192.737981,33.8458286 L192.737981,14.6259988 L181.016737,10.8025474 Z M181.016737,48.7535093 L181.016737,75.6202418 L192.737981,71.7967904 L192.737981,52.5769606 L181.016737,48.7535093 Z M98.9286727,25.6408917 L98.9286727,2.02069949 C98.9286727,1.11683126 99.6614026,0.384101285 100.565271,0.384101285 L105.431827,0.384101285 C106.335695,0.384101285 107.068425,1.11683126 107.068425,2.02069949 L107.068425,85.1702923 C107.068425,86.0741605 106.335695,86.8068905 105.431827,86.8068905 L100.565271,86.8068905 C99.6614026,86.8068905 98.9286727,86.0741605 98.9286727,85.1702923 L98.9286727,34.3784204 L87.2074289,30.5311744 L87.2074289,85.1702923 C87.2074289,86.0741605 86.474699,86.8068905 85.5708307,86.8068905 L80.7042746,86.8068905 C79.8004063,86.8068905 79.0676764,86.0741605 79.0676764,85.1702923 L79.0676764,2.02069949 C79.0676764,1.11683126 79.8004063,0.384101285 80.7042746,0.384101285 L85.5708307,0.384101285 C86.474699,0.384101285 87.2074289,1.11683126 87.2074289,2.02069949 L87.2074289,21.7936457 L98.9286727,25.6408917 Z M74.1528799,44.0709016 L74.1528799,75.9146392 C74.1534923,75.9329043 74.1537992,75.9511893 74.1537992,75.9694867 L74.1537992,81.2624231 C74.1537992,81.9676532 73.7020375,82.593575 73.0327061,82.8157125 L60.6768254,86.9163782 C60.3420806,87.0274731 59.9804028,87.0274561 59.6456686,86.9163296 L47.2739969,82.8091287 C46.6047403,82.586946 46.1530503,81.9610612 46.1530503,81.2558879 L46.1530503,75.9628342 C46.1530503,75.058966 46.8857802,74.326236 47.7896485,74.326236 C47.9648348,74.326236 48.1388849,74.3543635 48.3051537,74.4095448 L59.647942,78.1739856 C59.9826366,78.285064 60.3442577,78.285064 60.6789523,78.1739856 L66.0133945,76.4035927 L66.0133945,47.1075941 L47.2741433,40.8884175 C46.6048119,40.66628 46.1530503,40.0403582 46.1530503,39.3351281 L46.1530503,36.5692074 L46.1530503,9.126439 L46.1530503,6.1299912 C46.1530503,5.42481783 46.6047403,4.79893303 47.2739969,4.57675036 L59.6456686,0.469549497 C59.9804028,0.358422975 60.3420806,0.358405931 60.6768254,0.469500903 L73.0327061,4.57016657 C73.7020375,4.79230406 74.1537992,5.41822585 74.1537992,6.12345601 L74.1537992,11.4163924 C74.1537992,11.5915787 74.1256716,11.7656288 74.0704904,11.9318976 C73.7857847,12.7897556 72.8595538,13.2543875 72.0016958,12.9696818 L60.6789523,9.21189345 C60.3442577,9.10081509 59.9826366,9.10081509 59.647942,9.21189345 L54.2925356,10.989244 L54.2925356,34.4759926 L73.0317869,40.6951692 C73.7011182,40.9173066 74.1528799,41.5432284 74.1528799,42.2484586 L74.1528799,44.0709016 Z M41.2391731,15.0671787 L32.9146261,17.7995321 L32.9146261,2.02069949 C32.9146261,1.11683126 33.6473561,0.384101285 34.5512243,0.384101285 L39.6025749,0.384101285 C40.5064431,0.384101285 41.2391731,1.11683126 41.2391731,2.02069949 L41.2391731,15.0671787 Z M41.2391731,23.8047074 L41.2391731,85.1702923 C41.2391731,86.0741605 40.5064431,86.8068905 39.6025749,86.8068905 L34.5512243,86.8068905 C33.6473561,86.8068905 32.9146261,86.0741605 32.9146261,85.1702923 L32.9146261,26.5348143 C32.9416017,26.5274518 32.9685345,26.5193665 32.9954029,26.5105476 L41.2391731,23.8047074 Z M8.13975259,25.6408917 L19.8609963,21.7936457 L19.8609963,2.02069949 C19.8609963,1.11683126 20.5937263,0.384101285 21.4975945,0.384101285 L26.3641507,0.384101285 C27.2680189,0.384101285 28.0007489,1.11683126 28.0007489,2.02069949 L28.0007489,85.1702923 C28.0007489,86.0741605 27.2680189,86.8068905 26.3641507,86.8068905 L21.4975945,86.8068905 C20.5937263,86.8068905 19.8609963,86.0741605 19.8609963,85.1702923 L19.8609963,30.5311744 L8.13975259,34.3784204 L8.13975259,85.1702923 C8.13975259,86.0741605 7.40702261,86.8068905 6.50315438,86.8068905 L1.6365982,86.8068905 C0.732729975,86.8068905 -6.42822435e-14,86.0741605 -6.43929354e-14,85.1702923 L-6.39488462e-14,2.02069949 C-6.40595382e-14,1.11683126 0.732729975,0.384101285 1.6365982,0.384101285 L6.50315438,0.384101285 C7.40702261,0.384101285 8.13975259,1.11683126 8.13975259,2.02069949 L8.13975259,25.6408917 Z" id="hishnbamnd" fill="#CF282F"></path>
    </g>
</svg>

<svg xmlns="http://www.w3.org/2000/svg" width="300" height="87">
  <title>
    hishnbamnd
  </title>
  <path fill="#CF282F" fill-rule="evenodd" d="M154.7 9.2V1.7c0-1 .8-1.7 1.7-1.7h5c.9 0 1.6.7 1.6 1.7v9.1a1.6 1.6 0 0 1-2.1 1.6l-5-1.7c-.7-.2-1.2-.8-1.2-1.5zm-13 2.3l-11.8 3.9v69.8c0 .9-.7 1.6-1.6 1.6h-4.9c-.9 0-1.6-.7-1.6-1.6V2c0-.9.7-1.6 1.6-1.6h5c.8 0 1.5.7 1.5 1.6v4.6L147.7.8a1.6 1.6 0 0 1 2.1 1.5v82.5c0 1-.7 1.7-1.6 1.7h-4.9c-.9 0-1.6-.8-1.6-1.7V11.5zm117.2 0l-11.7 3.9v69.8c0 .9-.7 1.6-1.6 1.6h-4.9c-.9 0-1.6-.7-1.6-1.6V2c0-.9.7-1.6 1.6-1.6h4.9c.9 0 1.6.7 1.6 1.6v4.6L265 .8a1.6 1.6 0 0 1 2.2 1.5v82.5c0 1-.7 1.7-1.7 1.7h-4.8c-1 0-1.7-.8-1.7-1.7V11.5zm21.3.1v64l11.6-3.8V15.4l-11.6-3.8zm-8.2-4V2.5a1.7 1.7 0 0 1 2.2-1.6L298.9 9c.6.2 1.1.8 1.1 1.5v66.1c0 .8-.5 1.4-1.1 1.6l-24.7 8.1-.6.1c-.9 0-1.6-.7-1.6-1.6V7.7zm-58 26.2l12 3.8V10.8l-12 3.8v19.2zm0 8.6v42.7c0 1-.7 1.7-1.6 1.7h-5c-.8 0-1.6-.7-1.6-1.7V13.3 9.9c0-.7.5-1.4 1.2-1.6L232 .1l.5-.1c.9 0 1.6.7 1.6 1.6V85c0 1-.8 1.7-1.7 1.7h-5c-.8 0-1.6-.7-1.6-1.7V46.3l-11.8-3.9zM173 7V1.6a1.6 1.6 0 0 1 2-1.5l24.9 8.2c.6.2 1 .9 1 1.6v28.7c0 .7-.4 1.3-1 1.6l-9.2 3 9.2 3c.6.3 1 1 1 1.6V76.5c0 .8-.4 1.4-1 1.6l-24.9 8.2-.5.1c-.8 0-1.5-.7-1.5-1.6V7zm8.1 3.8v26.9l11.7-3.9V14.6L181 10.8zm0 38v26.8l11.7-3.8V52.6L181 48.8zM99 25.6V2c0-.9.7-1.6 1.6-1.6h4.8c1 0 1.7.7 1.7 1.6v83.2c0 .9-.8 1.6-1.7 1.6h-4.8c-1 0-1.7-.7-1.7-1.6V34.4l-11.7-3.9v54.7c0 .9-.7 1.6-1.6 1.6h-4.9c-.9 0-1.6-.7-1.6-1.6V2c0-.9.7-1.6 1.6-1.6h4.9c.9 0 1.6.7 1.6 1.6v19.8L99 25.6zM74.1 44.1v37.2c0 .7-.5 1.3-1.2 1.5L60.7 87h-1l-12.4-4c-.7-.3-1.1-1-1.1-1.6V76a1.6 1.6 0 0 1 2.1-1.6l11.3 3.8h1l5.4-1.8V47.1L47.3 41c-.7-.2-1.1-.9-1.1-1.6V6.1c0-.7.4-1.3 1-1.5L59.7.5h1l12.4 4c.7.3 1.2 1 1.2 1.6v5.3A1.6 1.6 0 0 1 72 13L60.7 9.2h-1L54.2 11v23.5L73 40.7c.7.2 1.2.8 1.2 1.5v1.9zm-33-29L33 17.8V2c0-.9.7-1.6 1.7-1.6h5c1 0 1.6.7 1.6 1.6v13zm0 8.7v61.4c0 .9-.7 1.6-1.6 1.6h-5c-1 0-1.7-.7-1.7-1.6V26.5h.1l8.2-2.7zm-33 1.8l11.7-3.8V2c0-.9.7-1.6 1.6-1.6h4.9C27.3.4 28 1 28 2v83.2c0 .9-.7 1.6-1.6 1.6h-4.9c-1 0-1.6-.7-1.6-1.6V30.5L8 34.4v50.8c0 .9-.7 1.6-1.6 1.6H1.6c-.9 0-1.6-.7-1.6-1.6V2C0 1.1.7.4 1.6.4h4.9c1 0 1.6.7 1.6 1.6v23.6z"/>
</svg>
